X: 30892
T: COTILLION No. 6. BLACK HAWK SETT tune 5
T: Ap Shenkin
T: the Tempest
N: This is a version of Ap Shenkin, aka The Tempest, with a 3rd strain.
%R: jig
B: Elias Howe "The Musician's Companion" Part 3 1844 p.89 #2
S: http://imslp.org/wiki/The_Musician's_Companion_(Howe,_Elias)
Z: 2015 John Chambers <jc:trillian.mit.edu>
M: 6/8
L: 1/8
K: G
% - - - - - - - - - - - - - - - - - - - - - - - - - - - - -
d/c/ |\
B2B Bgf | e2e efg | ded dcB | BAA A2 (d/c/) |\
B2B Bgf | e2e efg | ded cBA | GGG G2 H|]
g/a/ |\
b2g a2f | gfe dcB | cde dgB | BAA A2 g/a/ |\
b2g a2f | gfe agf | bag fge | dgf ed"^D.C."c |]
D |\
DB,B, GB,B, | DCC C2C/D/ | CA,A, BDD | CB,B, B,3 |\
DB,B, GB,B, | ADD BGG | DBA GFE | EDD "^D.C."D3 |]
% - - - - - - - - - - Dance description - - - - - - - - - -
%%begintext align
%% All alamand corners,
%% alamand partners,
%% Balance your partners,
%% grand chain,
%% promenade 4.
%%endtext
% - - - - - - - - - - - - - - - - - - - - - - - - - - - - -
%%sep 1 1 300
